Sources/FrostedUI/Resources/Icons.xcassets/collapseSidebar16.imageset/collapse-sidebar-16.svg

<svg width="16" height="16" viewBox="0 0 16 16" fill="none" xmlns="http://www.w3.org/2000/svg" data-fui-icon="true">
  <path
    d="M11.25 2C13.3211 2 15 3.67893 15 5.75V10.25C15 12.3211 13.3211 14 11.25 14H4.75C2.67893 14 1 12.3211 1 10.25V5.75C1 3.67893 2.67893 2 4.75 2H11.25ZM4.75 3.5C3.50736 3.5 2.5 4.50736 2.5 5.75V10.25C2.5 11.4926 3.50736 12.5 4.75 12.5H6V3.5H4.75ZM7.5 12.5H11.25C12.4926 12.5 13.5 11.4926 13.5 10.25V5.75C13.5 4.50736 12.4926 3.5 11.25 3.5H7.5V12.5Z"
    fill="currentColor"
  />
</svg>

<svg xmlns="http://www.w3.org/2000/svg" width="16" height="16" fill="none" data-fui-icon="true" viewBox="0 0 16 16"><path fill="currentColor" d="M11.25 2A3.75 3.75 0 0 1 15 5.75v4.5A3.75 3.75 0 0 1 11.25 14h-6.5A3.75 3.75 0 0 1 1 10.25v-4.5A3.75 3.75 0 0 1 4.75 2zm-6.5 1.5A2.25 2.25 0 0 0 2.5 5.75v4.5a2.25 2.25 0 0 0 2.25 2.25H6v-9zm2.75 9h3.75a2.25 2.25 0 0 0 2.25-2.25v-4.5a2.25 2.25 0 0 0-2.25-2.25H7.5z"/></svg>
